symbols/web/exposure_plus_2/materialsymbolsrounded/exposure_plus_2_wght500gradN25_24px.svg

<svg xmlns="http://www.w3.org/2000/svg" height="24" width="24"><path d="M7.025 17q-.425 0-.725-.3t-.3-.75v-1.9H4.075q-.425 0-.725-.3t-.3-.75q0-.425.3-.725t.725-.3H6V10.05q0-.425.3-.725t.725-.3q.425 0 .725.3t.3.725v1.925h1.925q.425 0 .725.3T11 13q0 .45-.3.75t-.725.3H8.05v1.9q0 .45-.3.75t-.725.3Zm6.4 1.975q-.55 0-.937-.388-.388-.387-.388-.912 0-.35.163-.75.162-.4.412-.65L17 11.7q.85-.875 1.15-1.45.3-.575.3-1.225 0-.725-.537-1.263-.538-.537-1.563-.537-.55 0-.987.212-.438.213-.738.588-.35.425-.75.562-.4.138-.8-.012-.45-.175-.625-.625t.05-.825q.575-.925 1.55-1.513.975-.587 2.35-.587 2.05 0 3.2 1.187Q20.75 7.4 20.75 9q0 1.15-.525 2.112-.525.963-1.6 2.088l-3.45 3.6.025.075h4.7q.45 0 .75.313.3.312.3.737 0 .45-.3.75t-.75.3Z"/></svg>

<svg xmlns="http://www.w3.org/2000/svg" height="24" width="24"><path d="M7.025 17Q6.6 17 6.3 16.7Q6 16.4 6 15.95V14.05H4.075Q3.65 14.05 3.35 13.75Q3.05 13.45 3.05 13Q3.05 12.575 3.35 12.275Q3.65 11.975 4.075 11.975H6V10.05Q6 9.625 6.3 9.325Q6.6 9.025 7.025 9.025Q7.45 9.025 7.75 9.325Q8.05 9.625 8.05 10.05V11.975H9.975Q10.4 11.975 10.7 12.275Q11 12.575 11 13Q11 13.45 10.7 13.75Q10.4 14.05 9.975 14.05H8.05V15.95Q8.05 16.4 7.75 16.7Q7.45 17 7.025 17ZM13.425 18.975Q12.875 18.975 12.488 18.587Q12.1 18.2 12.1 17.675Q12.1 17.325 12.263 16.925Q12.425 16.525 12.675 16.275L17 11.7Q17.85 10.825 18.15 10.25Q18.45 9.675 18.45 9.025Q18.45 8.3 17.913 7.762Q17.375 7.225 16.35 7.225Q15.8 7.225 15.363 7.437Q14.925 7.65 14.625 8.025Q14.275 8.45 13.875 8.587Q13.475 8.725 13.075 8.575Q12.625 8.4 12.45 7.95Q12.275 7.5 12.5 7.125Q13.075 6.2 14.05 5.612Q15.025 5.025 16.4 5.025Q18.45 5.025 19.6 6.212Q20.75 7.4 20.75 9Q20.75 10.15 20.225 11.112Q19.7 12.075 18.625 13.2L15.175 16.8L15.2 16.875H19.9Q20.35 16.875 20.65 17.188Q20.95 17.5 20.95 17.925Q20.95 18.375 20.65 18.675Q20.35 18.975 19.9 18.975Z"/></svg>
